src/assets/transitions/others/othersSpacer1.svg

<svg xmlns="http://www.w3.org/2000/svg" width="900" height="200"><path fill="#001220" d="M0 0h900v200H0z"/><path fill="#212d53" d="m0 102 8.8-2.2c8.9-2.1 26.5-6.5 44.2-5.6 17.7.8 35.3 6.8 53 10.6 17.7 3.9 35.3 5.5 53 6.5s35.3 1.4 53-3.5c17.7-4.8 35.3-14.8 53-18.5 17.7-3.6 35.3-1 53 3.2s35.3 9.8 53 17.7c17.7 7.8 35.3 17.8 52.8 16.6 17.5-1.1 34.9-13.5 52.4-19.1 17.5-5.7 35.1-4.7 52.8-3.7s35.3 2 53 3.7c17.7 1.6 35.3 4 53 3.6 17.7-.3 35.3-3.3 53-6.8s35.3-7.5 53-5.5 35.3 10 53 14 35.3 4 53 1.7c17.7-2.4 35.3-7 44.2-9.4l8.8-2.3V0H0Z"/><path fill="#1c2646" d="m0 114 8.8-5c8.9-5 26.5-15 44.2-21.5s35.3-9.5 53-6.2c17.7 3.4 35.3 13 53 18.9 17.7 5.8 35.3 7.8 53 6.8s35.3-5 53-7.3c17.7-2.4 35.3-3 53-5.9C335.7 91 353.3 86 371 83s35.3-4 52.8 1.2c17.5 5.1 34.9 16.5 52.4 19.3s35.1-2.8 52.8-4.2c17.7-1.3 35.3 1.7 53 0 17.7-1.6 35.3-8 53-5.8s35.3 12.8 53 14.3 35.3-6.1 53-13.3 35.3-13.8 53-9.3 35.3 20.1 53 27.3 35.3 5.8 44.2 5.2l8.8-.7V0H0Z"/><path fill="#171f3a" d="m0 78 8.8-1c8.9-1 26.5-3 44.2-2.7 17.7.4 35.3 3 53 6.2s35.3 6.8 53 7 35.3-3.2 53-5.2 35.3-2.6 53 .4 35.3 9.6 53 9.6 35.3-6.6 53-6.5c17.7.2 35.3 7.2 52.8 8 17.5.9 34.9-4.5 52.4-8.1C493.7 82 511.3 80 529 81s35.3 5 53 8.5 35.3 6.5 53 2.3c17.7-4.1 35.3-15.5 53-14.6 17.7.8 35.3 13.8 53 15.1 17.7 1.4 35.3-9 53-14.3s35.3-5.7 53-2.5 35.3 9.8 44.2 13.2L900 92V0H0Z"/><path fill="#12182e" d="m0 87 8.8 1.5C17.7 90 35.3 93 53 88.3c17.7-4.6 35.3-17 53-17.8s35.3 9.8 53 12.2c17.7 2.3 35.3-3.7 53-6.9 17.7-3.1 35.3-3.5 53-.1 17.7 3.3 35.3 10.3 53 9 17.7-1.4 35.3-11 53-13.9 17.7-2.8 35.3 1.2 52.8 2 17.5.9 34.9-1.5 52.4-1.8s35.1 1.3 52.8 4.3 35.3 7.4 53 4.4 35.3-13.4 53-12.7 35.3 12.3 53 19 35.3 8.3 53 5.3 35.3-10.6 53-10.6 35.3 7.6 53 7.8 35.3-7.2 44.2-10.8L900 74V0H0Z"/><path fill="#0d1123" d="M0 82h8.8c8.9 0 26.5 0 44.2-3.7 17.7-3.6 35.3-11 53-12.5s35.3 2.9 53 3.7 35.3-1.8 53-6.3 35.3-10.9 53-11.9 35.3 3.4 53 3.9 35.3-2.9 53-4.5c17.7-1.7 35.3-1.7 52.8 1.8s34.9 10.5 52.4 12.8c17.5 2.4 35.1 0 52.8-3.6 17.7-3.7 35.3-8.7 53-7 17.7 1.6 35.3 10 53 10.6 17.7.7 35.3-6.3 53-8.8s35.3-.5 53 3.5 35.3 10 53 8 35.3-12 53-15.2c17.7-3.1 35.3.5 44.2 2.4L900 57V0H0Z"/><path fill="#0d1021" d="m0 38 8.8 4.2c8.9 4.1 26.5 12.5 44.2 15s35.3-.9 53-2c17.7-1.2 35.3-.2 53 .8s35.3 2 53 3.3c17.7 1.4 35.3 3 53 3.2s35.3-1.2 53-.8c17.7.3 35.3 2.3 53 3.5 17.7 1.1 35.3 1.5 52.8-2.5s34.9-12.4 52.4-16.9 35.1-5.1 52.8-2.6 35.3 8.1 53 9.6 35.3-1.1 53 0c17.7 1.2 35.3 6.2 53 8 17.7 1.9 35.3.5 53-3.8s35.3-11.7 53-11.7 35.3 7.4 53 7.4 35.3-7.4 44.2-11L900 38V0H0Z"/><path fill="#0c0f1f" d="m0 43 8.8-1c8.9-1 26.5-3 44.2-3.3 17.7-.4 35.3 1 53 .5s35.3-2.9 53-3.7 35.3-.2 53 1.3 35.3 3.9 53 3c17.7-.8 35.3-4.8 53-6.5 17.7-1.6 35.3-1 53-1.8s35.3-3.2 52.8-3.3c17.5-.2 34.9 1.8 52.4 2.8s35.1 1 52.8 4.2c17.7 3.1 35.3 9.5 53 10.6 17.7 1.2 35.3-2.8 53-5.3s35.3-3.5 53-3 35.3 2.5 53 3 35.3-.5 53-2 35.3-3.5 53-3.3c17.7.1 35.3 2.5 44.2 3.6L900 40V0H0Z"/><path fill="#0c0e1e" d="m0 33 8.8.8c8.9.9 26.5 2.5 44.2.4 17.7-2.2 35.3-8.2 53-9 17.7-.9 35.3 3.5 53 4.1 17.7.7 35.3-2.3 53-4 17.7-1.6 35.3-2 53-3.5s35.3-4.1 53-3.1 35.3 5.6 53 9.6 35.3 7.4 52.8 5.7 34.9-8.3 52.4-11.7c17.5-3.3 35.1-3.3 52.8-3.6 17.7-.4 35.3-1 53 2.1C599.7 24 617.3 31 635 32s35.3-4 53-6.2c17.7-2.1 35.3-1.5 53 .5s35.3 5.4 53 4.2 35.3-6.8 53-6.8 35.3 5.6 44.2 8.5L900 35V0H0Z"/><path fill="#0b0d1c" d="m0 9 8.8 1.3c8.9 1.4 26.5 4 44.2 3.5s35.3-4.1 53-3c17.7 1.2 35.3 7.2 53 8.4 17.7 1.1 35.3-2.5 53-5s35.3-3.9 53-4.2 35.3.3 53 .2c17.7-.2 35.3-1.2 53-1.5 17.7-.4 35.3 0 52.8 1.1 17.5 1.2 34.9 3.2 52.4 3.5 17.5.4 35.1-1 52.8.2s35.3 4.8 53 5.8 35.3-.6 53-1.1 35.3.1 53 .1 35.3-.6 53-.8 35.3.2 53 .3c17.7.2 35.3.2 53-1.1 17.7-1.4 35.3-4 44.2-5.4L900 10V0H0Z"/></svg>

<svg id="visual" viewBox="0 0 900 200" width="900" height="200" xmlns="http://www.w3.org/2000/svg" xmlns:xlink="http://www.w3.org/1999/xlink" version="1.1"><rect x="0" y="0" width="900" height="200" fill="#001220"></rect><path d="M0 102L8.8 99.8C17.7 97.7 35.3 93.3 53 94.2C70.7 95 88.3 101 106 104.8C123.7 108.7 141.3 110.3 159 111.3C176.7 112.3 194.3 112.7 212 107.8C229.7 103 247.3 93 265 89.3C282.7 85.7 300.3 88.3 318 92.5C335.7 96.7 353.3 102.3 371 110.2C388.7 118 406.3 128 423.8 126.8C441.3 125.7 458.7 113.3 476.2 107.7C493.7 102 511.3 103 529 104C546.7 105 564.3 106 582 107.7C599.7 109.3 617.3 111.7 635 111.3C652.7 111 670.3 108 688 104.5C705.7 101 723.3 97 741 99C758.7 101 776.3 109 794 113C811.7 117 829.3 117 847 114.7C864.7 112.3 882.3 107.7 891.2 105.3L900 103L900 0L891.2 0C882.3 0 864.7 0 847 0C829.3 0 811.7 0 794 0C776.3 0 758.7 0 741 0C723.3 0 705.7 0 688 0C670.3 0 652.7 0 635 0C617.3 0 599.7 0 582 0C564.3 0 546.7 0 529 0C511.3 0 493.7 0 476.2 0C458.7 0 441.3 0 423.8 0C406.3 0 388.7 0 371 0C353.3 0 335.7 0 318 0C300.3 0 282.7 0 265 0C247.3 0 229.7 0 212 0C194.3 0 176.7 0 159 0C141.3 0 123.7 0 106 0C88.3 0 70.7 0 53 0C35.3 0 17.7 0 8.8 0L0 0Z" fill="#212d53"></path><path d="M0 114L8.8 109C17.7 104 35.3 94 53 87.5C70.7 81 88.3 78 106 81.3C123.7 84.7 141.3 94.3 159 100.2C176.7 106 194.3 108 212 107C229.7 106 247.3 102 265 99.7C282.7 97.3 300.3 96.7 318 93.8C335.7 91 353.3 86 371 83C388.7 80 406.3 79 423.8 84.2C441.3 89.3 458.7 100.7 476.2 103.5C493.7 106.3 511.3 100.7 529 99.3C546.7 98 564.3 101 582 99.3C599.7 97.7 617.3 91.3 635 93.5C652.7 95.7 670.3 106.3 688 107.8C705.7 109.3 723.3 101.7 741 94.5C758.7 87.3 776.3 80.7 794 85.2C811.7 89.7 829.3 105.3 847 112.5C864.7 119.7 882.3 118.3 891.2 117.7L900 117L900 0L891.2 0C882.3 0 864.7 0 847 0C829.3 0 811.7 0 794 0C776.3 0 758.7 0 741 0C723.3 0 705.7 0 688 0C670.3 0 652.7 0 635 0C617.3 0 599.7 0 582 0C564.3 0 546.7 0 529 0C511.3 0 493.7 0 476.2 0C458.7 0 441.3 0 423.8 0C406.3 0 388.7 0 371 0C353.3 0 335.7 0 318 0C300.3 0 282.7 0 265 0C247.3 0 229.7 0 212 0C194.3 0 176.7 0 159 0C141.3 0 123.7 0 106 0C88.3 0 70.7 0 53 0C35.3 0 17.7 0 8.8 0L0 0Z" fill="#1c2646"></path><path d="M0 78L8.8 77C17.7 76 35.3 74 53 74.3C70.7 74.7 88.3 77.3 106 80.5C123.7 83.7 141.3 87.3 159 87.5C176.7 87.7 194.3 84.3 212 82.3C229.7 80.3 247.3 79.7 265 82.7C282.7 85.7 300.3 92.3 318 92.3C335.7 92.3 353.3 85.7 371 85.8C388.7 86 406.3 93 423.8 93.8C441.3 94.7 458.7 89.3 476.2 85.7C493.7 82 511.3 80 529 81C546.7 82 564.3 86 582 89.5C599.7 93 617.3 96 635 91.8C652.7 87.7 670.3 76.3 688 77.2C705.7 78 723.3 91 741 92.3C758.7 93.7 776.3 83.3 794 78C811.7 72.7 829.3 72.3 847 75.5C864.7 78.7 882.3 85.3 891.2 88.7L900 92L900 0L891.2 0C882.3 0 864.7 0 847 0C829.3 0 811.7 0 794 0C776.3 0 758.7 0 741 0C723.3 0 705.7 0 688 0C670.3 0 652.7 0 635 0C617.3 0 599.7 0 582 0C564.3 0 546.7 0 529 0C511.3 0 493.7 0 476.2 0C458.7 0 441.3 0 423.8 0C406.3 0 388.7 0 371 0C353.3 0 335.7 0 318 0C300.3 0 282.7 0 265 0C247.3 0 229.7 0 212 0C194.3 0 176.7 0 159 0C141.3 0 123.7 0 106 0C88.3 0 70.7 0 53 0C35.3 0 17.7 0 8.8 0L0 0Z" fill="#171f3a"></path><path d="M0 87L8.8 88.5C17.7 90 35.3 93 53 88.3C70.7 83.7 88.3 71.3 106 70.5C123.7 69.7 141.3 80.3 159 82.7C176.7 85 194.3 79 212 75.8C229.7 72.7 247.3 72.3 265 75.7C282.7 79 300.3 86 318 84.7C335.7 83.3 353.3 73.7 371 70.8C388.7 68 406.3 72 423.8 72.8C441.3 73.7 458.7 71.3 476.2 71C493.7 70.7 511.3 72.3 529 75.3C546.7 78.3 564.3 82.7 582 79.7C599.7 76.7 617.3 66.3 635 67C652.7 67.7 670.3 79.3 688 86C705.7 92.7 723.3 94.3 741 91.3C758.7 88.3 776.3 80.7 794 80.7C811.7 80.7 829.3 88.3 847 88.5C864.7 88.7 882.3 81.3 891.2 77.7L900 74L900 0L891.2 0C882.3 0 864.7 0 847 0C829.3 0 811.7 0 794 0C776.3 0 758.7 0 741 0C723.3 0 705.7 0 688 0C670.3 0 652.7 0 635 0C617.3 0 599.7 0 582 0C564.3 0 546.7 0 529 0C511.3 0 493.7 0 476.2 0C458.7 0 441.3 0 423.8 0C406.3 0 388.7 0 371 0C353.3 0 335.7 0 318 0C300.3 0 282.7 0 265 0C247.3 0 229.7 0 212 0C194.3 0 176.7 0 159 0C141.3 0 123.7 0 106 0C88.3 0 70.7 0 53 0C35.3 0 17.7 0 8.8 0L0 0Z" fill="#12182e"></path><path d="M0 82L8.8 82C17.7 82 35.3 82 53 78.3C70.7 74.7 88.3 67.3 106 65.8C123.7 64.3 141.3 68.7 159 69.5C176.7 70.3 194.3 67.7 212 63.2C229.7 58.7 247.3 52.3 265 51.3C282.7 50.3 300.3 54.7 318 55.2C335.7 55.7 353.3 52.3 371 50.7C388.7 49 406.3 49 423.8 52.5C441.3 56 458.7 63 476.2 65.3C493.7 67.7 511.3 65.3 529 61.7C546.7 58 564.3 53 582 54.7C599.7 56.3 617.3 64.7 635 65.3C652.7 66 670.3 59 688 56.5C705.7 54 723.3 56 741 60C758.7 64 776.3 70 794 68C811.7 66 829.3 56 847 52.8C864.7 49.7 882.3 53.3 891.2 55.2L900 57L900 0L891.2 0C882.3 0 864.7 0 847 0C829.3 0 811.7 0 794 0C776.3 0 758.7 0 741 0C723.3 0 705.7 0 688 0C670.3 0 652.7 0 635 0C617.3 0 599.7 0 582 0C564.3 0 546.7 0 529 0C511.3 0 493.7 0 476.2 0C458.7 0 441.3 0 423.8 0C406.3 0 388.7 0 371 0C353.3 0 335.7 0 318 0C300.3 0 282.7 0 265 0C247.3 0 229.7 0 212 0C194.3 0 176.7 0 159 0C141.3 0 123.7 0 106 0C88.3 0 70.7 0 53 0C35.3 0 17.7 0 8.8 0L0 0Z" fill="#0d1123"></path><path d="M0 38L8.8 42.2C17.7 46.3 35.3 54.7 53 57.2C70.7 59.7 88.3 56.3 106 55.2C123.7 54 141.3 55 159 56C176.7 57 194.3 58 212 59.3C229.7 60.7 247.3 62.3 265 62.5C282.7 62.7 300.3 61.3 318 61.7C335.7 62 353.3 64 371 65.2C388.7 66.3 406.3 66.7 423.8 62.7C441.3 58.7 458.7 50.3 476.2 45.8C493.7 41.3 511.3 40.7 529 43.2C546.7 45.7 564.3 51.3 582 52.8C599.7 54.3 617.3 51.7 635 52.8C652.7 54 670.3 59 688 60.8C705.7 62.7 723.3 61.3 741 57C758.7 52.7 776.3 45.3 794 45.3C811.7 45.3 829.3 52.7 847 52.7C864.7 52.7 882.3 45.3 891.2 41.7L900 38L900 0L891.2 0C882.3 0 864.7 0 847 0C829.3 0 811.7 0 794 0C776.3 0 758.7 0 741 0C723.3 0 705.7 0 688 0C670.3 0 652.7 0 635 0C617.3 0 599.7 0 582 0C564.3 0 546.7 0 529 0C511.3 0 493.7 0 476.2 0C458.7 0 441.3 0 423.8 0C406.3 0 388.7 0 371 0C353.3 0 335.7 0 318 0C300.3 0 282.7 0 265 0C247.3 0 229.7 0 212 0C194.3 0 176.7 0 159 0C141.3 0 123.7 0 106 0C88.3 0 70.7 0 53 0C35.3 0 17.7 0 8.8 0L0 0Z" fill="#0d1021"></path><path d="M0 43L8.8 42C17.7 41 35.3 39 53 38.7C70.7 38.3 88.3 39.7 106 39.2C123.7 38.7 141.3 36.3 159 35.5C176.7 34.7 194.3 35.3 212 36.8C229.7 38.3 247.3 40.7 265 39.8C282.7 39 300.3 35 318 33.3C335.7 31.7 353.3 32.3 371 31.5C388.7 30.7 406.3 28.3 423.8 28.2C441.3 28 458.7 30 476.2 31C493.7 32 511.3 32 529 35.2C546.7 38.3 564.3 44.7 582 45.8C599.7 47 617.3 43 635 40.5C652.7 38 670.3 37 688 37.5C705.7 38 723.3 40 741 40.5C758.7 41 776.3 40 794 38.5C811.7 37 829.3 35 847 35.2C864.7 35.3 882.3 37.7 891.2 38.8L900 40L900 0L891.2 0C882.3 0 864.7 0 847 0C829.3 0 811.7 0 794 0C776.3 0 758.7 0 741 0C723.3 0 705.7 0 688 0C670.3 0 652.7 0 635 0C617.3 0 599.7 0 582 0C564.3 0 546.7 0 529 0C511.3 0 493.7 0 476.2 0C458.7 0 441.3 0 423.8 0C406.3 0 388.7 0 371 0C353.3 0 335.7 0 318 0C300.3 0 282.7 0 265 0C247.3 0 229.7 0 212 0C194.3 0 176.7 0 159 0C141.3 0 123.7 0 106 0C88.3 0 70.7 0 53 0C35.3 0 17.7 0 8.8 0L0 0Z" fill="#0c0f1f"></path><path d="M0 33L8.8 33.8C17.7 34.7 35.3 36.3 53 34.2C70.7 32 88.3 26 106 25.2C123.7 24.3 141.3 28.7 159 29.3C176.7 30 194.3 27 212 25.3C229.7 23.7 247.3 23.3 265 21.8C282.7 20.3 300.3 17.7 318 18.7C335.7 19.7 353.3 24.3 371 28.3C388.7 32.3 406.3 35.7 423.8 34C441.3 32.3 458.7 25.7 476.2 22.3C493.7 19 511.3 19 529 18.7C546.7 18.3 564.3 17.7 582 20.8C599.7 24 617.3 31 635 32C652.7 33 670.3 28 688 25.8C705.7 23.7 723.3 24.3 741 26.3C758.7 28.3 776.3 31.7 794 30.5C811.7 29.3 829.3 23.7 847 23.7C864.7 23.7 882.3 29.3 891.2 32.2L900 35L900 0L891.2 0C882.3 0 864.7 0 847 0C829.3 0 811.7 0 794 0C776.3 0 758.7 0 741 0C723.3 0 705.7 0 688 0C670.3 0 652.7 0 635 0C617.3 0 599.7 0 582 0C564.3 0 546.7 0 529 0C511.3 0 493.7 0 476.2 0C458.7 0 441.3 0 423.8 0C406.3 0 388.7 0 371 0C353.3 0 335.7 0 318 0C300.3 0 282.7 0 265 0C247.3 0 229.7 0 212 0C194.3 0 176.7 0 159 0C141.3 0 123.7 0 106 0C88.3 0 70.7 0 53 0C35.3 0 17.7 0 8.8 0L0 0Z" fill="#0c0e1e"></path><path d="M0 9L8.8 10.3C17.7 11.7 35.3 14.3 53 13.8C70.7 13.3 88.3 9.7 106 10.8C123.7 12 141.3 18 159 19.2C176.7 20.3 194.3 16.7 212 14.2C229.7 11.7 247.3 10.3 265 10C282.7 9.7 300.3 10.3 318 10.2C335.7 10 353.3 9 371 8.7C388.7 8.3 406.3 8.7 423.8 9.8C441.3 11 458.7 13 476.2 13.3C493.7 13.7 511.3 12.3 529 13.5C546.7 14.7 564.3 18.3 582 19.3C599.7 20.3 617.3 18.7 635 18.2C652.7 17.7 670.3 18.3 688 18.3C705.7 18.3 723.3 17.7 741 17.5C758.7 17.3 776.3 17.7 794 17.8C811.7 18 829.3 18 847 16.7C864.7 15.3 882.3 12.7 891.2 11.3L900 10L900 0L891.2 0C882.3 0 864.7 0 847 0C829.3 0 811.7 0 794 0C776.3 0 758.7 0 741 0C723.3 0 705.7 0 688 0C670.3 0 652.7 0 635 0C617.3 0 599.7 0 582 0C564.3 0 546.7 0 529 0C511.3 0 493.7 0 476.2 0C458.7 0 441.3 0 423.8 0C406.3 0 388.7 0 371 0C353.3 0 335.7 0 318 0C300.3 0 282.7 0 265 0C247.3 0 229.7 0 212 0C194.3 0 176.7 0 159 0C141.3 0 123.7 0 106 0C88.3 0 70.7 0 53 0C35.3 0 17.7 0 8.8 0L0 0Z" fill="#0b0d1c"></path></svg>
